X: 15748
T: Gone To The Bower
R: jig
M: 6/8
K: Edorian
EEE GEB|EEE GEB|BAG FED|BAG FGA|
EEE GEB|EEE GEB|BAG FAB|EEE E3:|
BAF GAB|ege B3|BAG FED|BAG FGA|
B2B GAB|ege B3|BAG FAB|EEE E3:|
eee BBB|gfe edB|ddd dBe|BfB gfd|
eee BBB|gfe edB|dcd eee|fff g3:|

